src/icons/datapower-routing.svg

<?xml version="1.0" encoding="UTF-8"?>
<svg xmlns="http://www.w3.org/2000/svg" xmlns:xlink="http://www.w3.org/1999/xlink" width="32" height="32" viewBox="0 0 32 32" version="1.1">
<defs>
<filter id="alpha" filterUnits="objectBoundingBox" x="0%" y="0%" width="100%" height="100%">
  <feColorMatrix type="matrix" in="SourceGraphic" values="0 0 0 0 1 0 0 0 0 1 0 0 0 0 1 0 0 0 1 0"/>
</filter>
<image id="image9" width="32" height="32" xlink:href="data:image/png;base64,iVBORw0KGgoAAAANSUhEUgAAACAAAAAgCAYAAABzenr0AAAABmJLR0QA/wD/AP+gvaeTAAABuklEQVRYhd2Wv0oDQRDGf4kJuTSKaGdrISIKFhaChYUPYKOVb2OljU9g5wMIgpY+gaUQxULEQrBNoknMWdxMMtn88XZPOeLAsjt3+22+fMnOfJBzFGQ+A/YlL5oZJy/IaAJL5pwT4NAD3wUWAUqyaRV4A64NMR2j8o7zRVaAd+AqJX4oboDzcS9HRNnJL4GLELzKFJPIkjYi+uopPvbEl10CPhHJCCVQUXyoAlU5JJRApHiV0efDEfCXybsBBLAEfElUGb4JmQj4KhABbZOHKBBbAiG3oGXykP/AEAGf+HUC4K/Ap/PMB1/R/UpglqQc3wENklpfl/WovAPcmwPngE3BN2VP3WA113UbqEG/Nu8CW7KOSeRty9wak9eAV8HsANsGPwmr6wfgJbVm/zb0JzgFDvi5n+sz1w8cA0cp8GP9wAbp/UCBwSIEsM6U+YHe9c/TD5RcAj6R1Q/08FkUyOoHIsjWDafeDww0oxBHlKsfqDoEcvEDth2HuOJc/cCQAvPAMnDLoAfQ0QA+zLsi0s8lFoA1g7c495wGMAM8Qr8275EYCuj7gUm9vCUHaD8P8RNPwHNKxf4uvgG7qcDfpia/QAAAAABJRU5ErkJggg=="/>
<mask id="mask0">
  <g filter="url(#alpha)">
<use xlink:href="#image9"/>
  </g>
</mask>
<linearGradient id="linear0" gradientUnits="userSpaceOnUse" x1="-0.1" y1="47.759998" x2="48" y2="-0.34" gradientTransform="matrix(0.666667,0,0,0.666667,0,0)">
<stop offset="0.1" style="stop-color:rgb(3.137255%,74.117649%,72.941178%);stop-opacity:1;"/>
<stop offset="0.9" style="stop-color:rgb(54.11765%,24.705882%,98.823529%);stop-opacity:1;"/>
</linearGradient>
<clipPath id="clip2">
  <rect x="0" y="0" width="32" height="32"/>
</clipPath>
<g id="surface8" clip-path="url(#clip2)">
<path style=" stroke:none;fill-rule:nonzero;fill:url(#linear0);" d="M -0.0664062 -0.226562 L 32 -0.226562 L 32 31.839844 L -0.0664062 31.839844 Z M -0.0664062 -0.226562 "/>
</g>
<clipPath id="clip1">
  <rect x="0" y="0" width="32" height="32"/>
</clipPath>
<g id="surface11" clip-path="url(#clip1)">
<use xlink:href="#surface8" mask="url(#mask0)"/>
</g>
</defs>
<g id="surface1">
<use xlink:href="#surface11"/>
<path style="fill:none;stroke-width:1.082244;stroke-linecap:butt;stroke-linejoin:miter;stroke:rgb(0%,0%,0%);stroke-opacity:1;stroke-miterlimit:10;" d="M 34.470703 14.701172 L 37.470703 11.701172 L 34.470703 8.701172 M 10.470703 11.701172 C 10.464844 12.310547 10.833984 12.867188 11.396484 13.101562 C 11.958984 13.341797 12.609375 13.212891 13.042969 12.779297 C 13.476562 12.351562 13.611328 11.701172 13.376953 11.132812 C 13.142578 10.570312 12.591797 10.201172 11.982422 10.201172 C 11.572266 10.189453 11.179688 10.335938 10.886719 10.617188 C 10.59375 10.898438 10.423828 11.285156 10.417969 11.689453 Z M 10.470703 35.748047 C 10.464844 36.363281 10.833984 36.914062 11.396484 37.154297 C 11.958984 37.388672 12.609375 37.259766 13.042969 36.832031 C 13.476562 36.398438 13.611328 35.748047 13.376953 35.185547 C 13.142578 34.617188 12.591797 34.248047 11.982422 34.248047 C 11.572266 34.236328 11.179688 34.388672 10.886719 34.669922 C 10.59375 34.945312 10.423828 35.332031 10.417969 35.742188 Z M 34.470703 35.748047 C 34.470703 36.580078 35.144531 37.253906 35.970703 37.259766 C 36.802734 37.265625 37.482422 36.591797 37.488281 35.765625 C 37.5 34.933594 36.832031 34.253906 36 34.242188 C 35.595703 34.230469 35.208984 34.388672 34.921875 34.669922 C 34.634766 34.951172 34.470703 35.337891 34.470703 35.742188 Z M 34.470703 35.748047 L 13.470703 35.748047 M 11.970703 13.201172 L 11.970703 34.242188 M 37.482422 11.689453 L 13.482422 11.689453 " transform="matrix(0.666667,0,0,0.666667,0,0)"/>
</g>
</svg>

<svg xmlns:xlink="http://www.w3.org/1999/xlink" role="img" viewBox="0 0 32 32" xmlns="http://www.w3.org/2000/svg"><defs><clipPath id="c"><use xlink:href="#a"/></clipPath><clipPath id="e"><use xlink:href="#a"/></clipPath><g clip-path="url(#c)" id="f"><path d="M-.066-.227H32V31.84H-.066Zm0 0" style="stroke:none;fill-rule:nonzero;fill:url(#d)"/></g><g clip-path="url(#e)" id="i"><use xlink:href="#f" mask="url(#g)"/></g><linearGradient gradientTransform="scale(.66667)" gradientUnits="userSpaceOnUse" id="d" x1="-.1" x2="48" y1="47.76" y2="-.34"><stop offset=".1" style="stop-color:rgb(3.137255%,74.117649%,72.941178%);stop-opacity:1"/><stop offset=".9" style="stop-color:rgb(54.11765%,24.705882%,98.823529%);stop-opacity:1"/></linearGradient><filter filterUnits="objectBoundingBox" height="100%" id="h" width="100%" x="0%" y="0%"><feColorMatrix in="SourceGraphic" values="0 0 0 0 1 0 0 0 0 1 0 0 0 0 1 0 0 0 1 0"/></filter><path d="M0 0h32v32H0z" id="a"/><mask id="g"><g filter="url(#h)"><use xlink:href="#b"/></g></mask></defs><use xlink:href="#i"/><path d="m34.47 14.701 3-3-3-3m-24 3c-.005.61.364 1.166.926 1.4.563.24 1.213.112 1.647-.322a1.506 1.506 0 0 0-1.06-2.578 1.51 1.51 0 0 0-1.565 1.488Zm0 24.047a1.515 1.515 0 0 0 .926 1.406 1.51 1.51 0 1 0 .586-2.906 1.51 1.51 0 0 0-1.095.422 1.5 1.5 0 0 0-.469 1.072Zm24 0c0 .832.675 1.506 1.5 1.512a1.51 1.51 0 0 0 .03-3.018 1.503 1.503 0 0 0-1.53 1.5Zm0 0h-21m-1.5-22.547v21.041M37.483 11.69h-24" style="fill:none;stroke-width:1.082244;stroke-linecap:butt;stroke-linejoin:miter;stroke:rgb(0%,0%,0%);stroke-opacity:1;stroke-miterlimit:10" transform="scale(.66667)"/></svg>
